!!!COM: Palestrina, Giovanni Perluigi da
!!!OPR: Missa Sine nomine (1567)
!!!OMD: Credo
!!!OTL: First Section
**kern	**kern	**kern	**kern
*Ibass	*Itenor	*Icalto	*Icant
!Bassus	!Tenor	!Altus	!Cantus
*clefF4	*clefGv2	*clefG2	*clefG2
*k[]	*k[]	*k[]	*k[]
*E:phr	*E:phr	*E:phr	*E:phr
*M4/2	*M4/2	*M4/2	*M4/2
=1	=1	=1	=1
0A	0c	0e	0a
=2	=2	=2	=2
1E	1B	1.e	1g#
1A	1c	.	1a
.	.	2f#	.
=3	=3	=3	=3
2G	2d	2g	2b
2E	2G	2g	2cc
1F	1A	2c	1a
.	.	2d	.
=4	=4	=4	=4
2E	2B	2e	2g#
2E	2B	2e	2g#
2A	2c	2f#	2a
2G	2d	2g	2b
=5	=5	=5	=5
2E	2e	2g	1cc
2F	2A	2f	.
1G	2B	1d	2b
.	[2d	.	2b
=6	=6	=6	=6
0A	2d]	2f	1a
.	4c	2e	.
.	4B	.	.
.	2.c	2r	2e
.	.	[2c	[2a
.	4d	.	.
=7	=7	=7	=7
1E	1e	2c]	2a]
.	.	2B	2g
1r	1A	2c	2e
.	.	2A	2f
=8	=8	=8	=8
0r	1r	2B	1g
.	.	1c	.
.	2r	.	2a
.	[2d	2d	2f
=9	=9	=9	=9
2r	2d]	1A	0e
1A	2c	.	.
.	2A	1r	.
2G	2B	.	.
=10	=10	=10	=10
2E	2c	1r	1r
2F	2d	.	.
2G	[1e	2r	2r
2A	.	[2c	[2a
=11	=11	=11	=11
1E	1e]	2c]	2a]
.	.	2B	2g
1r	1r	2c	2e
.	.	2A	2f
=12	=12	=12	=12
0r	0r	2B	2g
.	.	2c	2a
.	.	2d	2f
.	.	[2e	[2g
=13	=13	=13	=13
0r	1r	4e]	2g]
.	.	4d	.
.	.	1c	2e
.	1G	.	1d
.	.	2B	.
=14	=14	=14	=14
1C	2G	2c	2e
.	2G	2e	2g
2C	2.c	2e	2g
2C	.	2e	2g
.	4d	.	.
=15	=15	=15	=15
2C	2e	2g	2.cc
2C	2e	2g	.
.	.	.	4cc
2F	2A	2f	2cc
2G	2B	2d	[2b
=16	=16	=16	=16
2A	2.c	2f	2b]
2A	.	2e	1a
.	8B	.	.
.	8A	.	.
1E	2B	2.e	.
.	2B	.	2g#
.	.	4d	.
=17	=17	=17	=17
2r	1A	0c	0a
1A	.	.	.
.	2r	.	.
2A	[2e	.	.
=18	=18	=18	=18
2G	2e]	0r	0r
2A	2e	.	.
2F	2d	.	.
2E	2e	.	.
=19	=19	=19	=19
1A	2c	0r	0r
.	2A	.	.
2A	2.e	.	.
2G	.	.	.
.	4e	.	.
=20	=20	=20	=20
2F	2d	0r	0r
2E	2c	.	.
2.D	2B	.	.
.	[2A	.	.
4C	.	.	.
=21	=21	=21	=21
2BB	2A]	1r	1b
2BB	2G#	.	.
2AA	[1A	1e	2cc
2A	.	.	2cc
=22	=22	=22	=22
2F	1A]	2f	1a
2D	.	2f	.
1G	2r	1d	1b
.	[2B	.	.
=23	=23	=23	=23
1E	2B]	2e	1g
.	1c	2e	.
1r	.	2c	2a
.	2B	2d	2b
=24	=24	=24	=24
1r	2A	2e	2cc
.	2A	2f#	2cc
2r	2G	2g	2b
[2C	[2c	[2e	[2g
=25	=25	=25	=25
2C]	2c]	2e]	2g]
2C	2c	2e	2g
1F	1c	1f	1a
=26	=26	=26	=26
2C	2c	2e	2g
2E	2B	2e	2g
2D	2d	2A	2f
2C	2G	[2c	[2e
=27	=27	=27	=27
1F	1A	4c]	2e]
.	.	4B	.
.	.	1A	2d
1E	1B	.	[1e
.	.	2G#	.
=28	=28	=28	=28
2r	2r	1A	0e]
1A	1c	.	.
.	.	1r	.
2G#	2B	.	.
=29	=29	=29	=29
2A	2c	0r	0r
2F#	2A	.	.
2G	2B	.	.
2E	2c	.	.
=30	=30	=30	=30
2F	2d	0r	0r
2G	2d	.	.
2.A	2c	.	.
.	2e	.	.
4G	.	.	.
=31	=31	=31	=31
2F	4d	1r	0r
.	4c	.	.
2E	1c	.	.
1D	.	1d	.
.	2B	.	.
=32	=32	=32	=32
1C	1c	2e	1g
.	.	2g	.
1r	1r	2f	2a
.	.	2e	2cc
=33	=33	=33	=33
1r	1r	2.d	2b
.	.	.	2a
.	.	4c	.
1E	2r	1B	2.g
.	2B	.	.
.	.	.	4f
=34	=34	=34	=34
1A	1c	0r	0e
2G	2B	.	.
2A	2c	.	.
=35	=35	=35	=35
2F	2A	1r	1r
2F	2A	.	.
[1E	[1B	1e	1g
=36	=36	=36	=36
1E]	1B]	2e	2g
.	.	2e	2g
1r	1r	1f	1a
=37	=37	=37	=37
1r	0r	2e	2g
.	.	2c	2a
1D	.	1d	1f
=38	=38	=38	=38
1A	2r	2c	1e
.	2A	2c	.
2G	1d	2B	1r
2F	.	2A	.
=39	=39	=39	=39
2.E	2c	1e	1r
.	1B	.	.
4D	.	.	.
2C	.	2e	2r
2D	[2A	2f	2a
=40	=40	=40	=40
1BB	2A]	1d	1dd
.	2G#	.	.
2AA	2A	2r	2cc
2E	2G#	2e	[2b
=41	=41	=41	=41
1F	1A	2c	2b]
.	.	2d	1a
1E	1B	1e	.
.	.	.	2g#
=42	=42	=42	=42
1AA	1A	0c	0a
1A	2r	.	.
.	2A	.	.
=43	=43	=43	=43
2G#	2B	0r	0r
2G#	2B	.	.
1A	1c	.	.
=44	=44	=44	=44
1F	1d	1A	1a
1E	1e	2B	2g#
.	.	2B	2g#
=45	=45	=45	=45
0r	1A	1c	1a
.	2r	1d	1f
.	[2d	.	.
=46	=46	=46	=46
2.A	2d]	1e	0e
.	2c	.	.
4A	.	.	.
2A	2c	1r	.
2G#	2B	.	.
=47	=47	=47	=47
1A	1c	1e	1r
1F	1A	2d	1a
.	.	2d	.
=48	=48	=48	=48
2E	1B	1e	2g#
2E	.	.	2g#
2F	2r	1c	1a
2F	2A	.	.
=49	=49	=49	=49
1D	2.A	0d	0f
.	4G	.	.
1D	2A	.	.
.	2B	.	.
=50	=50	=50	=50
1C	1c	1G	1e
1r	1r	1r	1r
=51	=51	=51	=51
1.C	1.c	1.e	1.g
2C	2c	2e	2g
=52	=52	=52	=52
2C	2e	2g	2cc
2C	2e	2g	2cc
2G	2d	2g	2b
2G	2B	2d	2b
=53	=53	=53	=53
2F	2.c	2f	2a
2E	.	2g	2g
.	4B	.	.
1A	1c	2e	1a
.	.	2f#	.
=54	=54	=54	=54
1G	2d	0g	1b
.	2B	.	.
1E	2c	.	1r
.	2B	.	.
=55	=55	=55	=55
2F	2A	2r	0r
2E	2G#	2e	.
2D	4A	2f	.
.	4B	.	.
2C	4c	2e	.
.	4A	.	.
=56	=56	=56	=56
1D	4B	2.d	0r
.	4A	.	.
.	1A	.	.
.	.	4c	.
1E	.	1B	.
.	2G#	.	.
=57	=57	=57	=57
1.F	2A	0A	1.a
.	1c	.	.
2F	2d	.	2a
=58	=58	=58	=58
2C	2e	0r	2g
2D	2d	.	2f
2A	2d	.	2e
2A	2c#	.	2e
*-	*-	*-	*-
!!!CDT: 1525/^1526/-1594/2/2
!!!OCY: Italia
!!!AGN: Mass (Free)
!!!AST: renaissance, vocal
!!!ASW: Motet 1539 (Jacquet)
!!!PWK: Masses, Book 2
!!!RNB: Cadence finals: A,C
!!!YOR: Le Opere Complete, v. 4, p. 53
!!!YOO: Rome, Italy: Fratelli Scalera
!!!END: 1992//
!!!EED: John Miller
!!!YEC: Copyright 2000, John Miller
!!!YEN: United States of America
!!!YEM: Rights to all derivative electronic formats reserved.
!!!YEM: Refer to licensing agreement for further details.
!!!YEM: This file must be accompanied by the licensing agreement.
!!!YEM: A copy of the licensing agreement may be found at http://www.music-cog.ohio-state.edu/HumdrumDatabases/Palestrina/license.txt
!!!EMD: converted to Humdrum by Bret Aarden
